!!!COM: Vivaldi, Antonio Lucio
!!!CDT: 1678/03/04-1741/08/28
!!!OPR: 12 sonatas for two violins and basso continuo
!!!OTL: Sonata in E minor, op. @{OPS}, no. @{ONM} (@{SCT})
!!!OPS: 1
!!!ONM: 2
!!!OMV: 1. [Grave]
!!!ONB: Movement has no title, so movement designation is used.
!!!SCT: RV 67
!!!SCA: Antonio Vivaldi: Thematisch-systematisches Verzeichnis seiner Werke (Ryom-Verzeichnis)
!!!OMD: Grave
!!!key: e
**kern	**dynam	**fb	**kern	**dynam	**kern	**dynam
*part3	*	*	*part2	*	*part1	*
*staff3	*	*	*staff2	*	*staff1	*
*ICstr&ICklav	*	*	*ICstr	*	*ICstr	*
*Icello&Icemba	*	*	*Ivioln	*	*Ivioln	*
*	*	*	*I#2	*	*I#1	*
*I"Violoncello\nContinuo	*	*	*I"Violin 2	*	*I"Violin 1	*
*I'bc	*	*	*I'v2	*	*I'v1	*
*clefF4	*	*	*clefG2	*	*clefG2	*
*k[f#]	*	*	*k[f#]	*	*k[f#]	*
*e:	*	*	*e:	*	*e:	*
*M4/4	*	*	*M4/4	*	*M4/4	*
*met(c)	*	*	*met(c)	*	*met(c)	*
*MM40	*	*	*MM40	*	*MM40	*
=1	=1	=1	=1	=1	=1	=1
4e\	.	.	1r	.	4r	.
4d#X\	.	6	.	.	8r	.
.	.	.	.	.	16bb\LL	.
.	.	.	.	.	16aa\JJ	.
4.e\	.	.	.	.	8gg\L	.
.	.	.	.	.	16ff#y\L	.
.	.	.	.	.	16ee\JJ	.
.	.	.	.	.	8ccc\L	.
8e\	.	6	.	.	8ccc\J	.
=2	=2	=2	=2	=2	=2	=2
4d#X\	.	7	1r	.	8ccc\L	.
.	.	.	.	.	8bb\J	.
4dn\	.	6	.	.	16bb\LL	.
.	.	.	.	.	16aa\	.
.	.	.	.	.	16gg\	.
.	.	.	.	.	16ff#y\JJ	.
4c#X\	.	7	.	.	8ee\L	.
.	.	.	.	.	16ff#y\L	.
.	.	.	.	.	16gg\JJ	.
4cn\	.	6	.	.	8aa\L	.
.	.	.	.	.	8ee\J	.
=3	=3	=3	=3	=3	=3	=3
8.B\L	.	5 4	2r	.	8ee\L	.
.	.	.	.	.	8dd#X\J	.
16B\Jk	.	#	.	.	.	.
4D#X\	.	6	.	.	16bb\LL	.
.	.	.	.	.	16ff#y\	.
.	.	.	.	.	16gg\	.
.	.	.	.	.	16aa\JJ	.
8E\L	.	.	4r	.	(24gg\LL	.
.	.	.	.	.	24ff#y\	.
.	.	.	.	.	24ee\JJ)	.
8F#y\	.	.	.	.	(24aa\LL	.
.	.	.	.	.	24gg\	.
.	.	.	.	.	24ff#y\JJ)	.
8G\	.	6	8r	.	8bb\L	.
8A\J	.	.	16ee\LL	.	16aa\L	.
.	.	.	16ee\JJ	.	16gg\JJ	.
!!LO:LB:g=original
=4	=4	=4	=4	=4	=4	=4
4.B\	.	.	8dd\L	.	8ff#y\L	.
.	.	.	16cc#X\L	.	8b\J	.
.	.	.	16b\JJ	.	.	.
.	.	.	8gg\L	.	8r	.
8B\	.	6	8gg\J	.	8dd\	.
4A#X\	.	7	8gg\L	.	(8dd\L	.
.	.	.	8ff#y\J	.	8cc#X\)	.
4An\	.	6 #	16ff#y\LL	.	(8cc#y\	.
.	.	.	16ee\	.	.	.
.	.	.	16dd\	.	8ff#y\J)	.
.	.	.	16cc#X\JJ	.	.	.
=5	=5	=5	=5	=5	=5	=5
4G#X\	.	7	8b\L	.	(8ff#y\L	.
.	.	.	16cc#X\L	.	8ee\J)	.
.	.	.	16dd\JJ	.	.	.
4Gn\	.	6	8ee\L	.	8ee\L	.
.	.	.	8b\J	.	16ff#y\L	.
.	.	.	.	.	16gg\JJ	.
8.F#y\L	.	5#| 4	8b/L	.	8cc#X/L	.
.	.	.	8a#X/J	.	8f#y/J	.
16F#y\Jk	.	#	.	.	.	.
4AA#X/	.	6 (#)	16ff#y\LL	.	(4cc#X\	.
.	.	.	16cc#X\	.	.	.
.	.	.	16dd\	.	.	.
.	.	.	16ee\JJ	.	.	.
=6	=6	=6	=6	=6	=6	=6
4BB/	.	9#|	4dd\	.	8cc#X\L)	.
.	.	8	.	.	8b\J	.
16B\LL	.	#	8dd#X\L	.	4ff#y\	.
16F#y\	.	.	.	.	.	.
16G\	.	.	16bb\L	.	.	.
16A\JJ	.	.	16dd#y\JJ	.	.	.
8G\L	.	6	8een\L	.	4b\	.
8E\	.	.	8b\J	.	.	.
8G\	.	6	[4ee\	.	16r	.
.	.	.	.	.	16bb\LL	.
8A\J	.	.	.	.	16aa\	.
.	.	.	.	.	16gg\JJ	.
=7	=7	=7	=7	=7	=7	=7
8B\L	.	5 4	16ee\LL]	.	16ff#y\LL	.
.	.	.	16dd#X\	.	16b\	.
8E\	.	.	16ee\	.	16gg\	.
.	.	.	16ff#y\JJ	.	16aa\JJ	.
8B\	.	#	8.dd#X\L	.	8.ff#y\Lt	.
8BB\J	.	.	.	.	.	.
.	.	.	16ee\Jk	.	16ee\Jk	.
8E\L	.	.	4ee\	.	4ee\	.
8F#y\J	.	.	.	.	.	.
16G\LL	.	5	4r	.	[4bb\	.
16F#y\	.	.	.	.	.	.
16E\	.	6	.	.	.	.
16D\JJ	.	.	.	.	.	.
!!LO:LB:g=original
=8	=8	=8	=8	=8	=8	=8
8C\L	.	7	4.ee\	.	8bb\L]	.
16A\L	.	.	.	.	8cc\J	.
16G\JJ	.	.	.	.	.	.
16F#y\LL	.	7	.	.	[4aa\	.
16E\	.	.	.	.	.	.
16D\	.	.	8f#y/	.	.	.
16C\JJ	.	.	.	.	.	.
8BB\L	.	7	4.dd\	.	8aa\L]	.
16G\L	.	.	.	.	8b\J	.
16F#y\JJ	.	.	.	.	.	.
16E/LL	.	7	.	.	[4gg\	.
16D/	.	.	.	.	.	.
16C/	.	.	8e/	.	.	.
16BB/JJ	.	.	.	.	.	.
=9	=9	=9	=9	=9	=9	=9
4.AA/	.	7	4cc\	.	8gg\L]	.
.	.	.	.	.	8a\	.
.	.	6	8r	.	8ff#y\	.
8AA/	.	5	8cc\	.	8ee\J	.
8BB\L	.	#	4f#y/	.	4dd#X\	.
16B\L	.	.	.	.	.	.
16c\JJ	.	.	.	.	.	.
16B\LL	.	.	[4bb\	.	4r	.
16A\	.	.	.	.	.	.
16G\	.	6	.	.	.	.
16F#y\JJ	.	.	.	.	.	.
=10	=10	=10	=10	=10	=10	=10
8E\L	.	6 5	8bb\L]	.	4.ccc\	.
16e\L	.	.	8cc\J	.	.	.
16d\JJ	.	.	.	.	.	.
8c\L	.	6	[4aa\	.	.	.
16B\L	.	.	.	.	8ddn\	.
16c\JJ	.	.	.	.	.	.
8d\L	.	6 5	8aa\L]	.	4.bb\	.
8BB\J	.	.	16gg\L	.	.	.
.	.	.	16ff#y\JJ	.	.	.
16e\LL	.	.	[4gg\	.	.	.
16d\	.	.	.	.	.	.
16c\	.	.	.	.	16aa\LL	.
16B\JJ	.	.	.	.	16gg\JJ	.
=11	=11	=11	=11	=11	=11	=11
4c\	.	6 5	8gg\L]	.	4.aa\	.
.	.	.	(16a\L	.	.	.
.	.	.	16gg\JJ)	.	.	.
16d\LL	.	.	[4ff#y\	.	.	.
16e\	.	.	.	.	.	.
16d\	.	.	.	.	16b\LL	.
16c\JJ	.	.	.	.	16aa\JJ	.
8B\L	.	6 5	8ff#y\L]	.	4.gg\	.
8GG\J	.	.	16ee\L	.	.	.
.	.	.	16dd#X\JJ	.	.	.
8.c\L	.	.	[4ee\	.	.	.
.	.	.	.	.	16ff#y\LL	.
16c\Jk	.	.	.	.	16ee\JJ	.
!!LO:LB:g=original
=12	=12	=12	=12	=12	=12	=12
4F#y\	.	7 #	4ee\]	.	8aa#X\L	.
.	.	.	.	.	16gg#X\L	.
.	.	.	.	.	16ff#y\JJ	.
16G\LL	.	5	8ddn\L	.	2bb\t	.
16F#y\	.	.	.	.	.	.
16E\	.	.	8gg\J	.	.	.
16D\JJ	.	.	.	.	.	.
8E\L	.	6#/ 5	4.cc#X\	.	.	.
16D\L	.	.	.	.	.	.
16E\JJ	.	.	.	.	.	.
8F#y/L	.	#	.	.	4aa#X\	.
8FF#y/J	.	.	16ff#y\LL	.	.	.
.	.	.	16ee\JJ	.	.	.
=13	=13	=13	=13	=13	=13	=13
8BB\L	.	.	8dd\L	.	4bb\	.
16B\L	.	.	8b\J	.	.	.
16A\JJ	.	.	.	.	.	.
16G\LL	.	.	[4ee\	.	8r	.
16Fn\	.	.	.	.	.	.
16E\	.	.	.	.	8gg\	.
16F\JJ	.	.	.	.	.	.
4.GG#X/	.	7(n) 6	8ee\L]	.	2ffn\T	.
.	.	.	16dd\L	.	.	.
.	.	.	16cc\JJ	.	.	.
.	.	.	8dd\L	.	.	.
8GG#y/	.	5	16cc\L	.	.	.
.	.	.	16b\JJ	.	.	.
=14	=14	=14	=14	=14	=14	=14
8AA/L	.	.	8cc/L	.	8ee\L	.
8D/J	.	6	16b/L	.	16.dd\L	.
.	.	.	16a/JJ	.	.	.
.	.	.	.	.	32cc\JJk	.
8E/L	.	#	4g#X/	.	4b\	.
8EE/J	.	.	.	.	.	.
4AA/	.	.	4a/	.	8a\L	.
.	.	.	.	.	16aa\L	.
.	.	.	.	.	16gg\JJ	.
4A\	.	6	8r	.	8ff#X\L	.
.	.	.	8cc\	.	16gg\L	.
.	.	.	.	.	16aa\JJ	.
=15	=15	=15	=15	=15	=15	=15
8B\L	.	#	4f#y/	.	8dd#X\L	.
8A\J	.	.	.	.	16cc#X\L	.
.	.	.	.	.	16b\JJ	.
8G\L	.	6	8r	.	[4ee\	.
16F#y\L	.	.	8b\	.	.	.
16E\JJ	.	.	.	.	.	.
4.A\	.	#	4.cc#X\	.	8ee\L]	.
.	.	.	.	.	16dd#X\L	.
.	.	.	.	.	16cc#X\JJ	.
.	.	.	.	.	[4ff#y\	.
16G\LL	.	.	8aa\	.	.	.
16F#y\JJ	.	.	.	.	.	.
!!LO:LB:g=original
=16	=16	=16	=16	=16	=16	=16
4.B\	.	5 #	4.dd#X\	.	8ff#y\L]	.
.	.	.	.	.	16ee\L	.
.	.	.	.	.	16dd#X\JJ	.
.	.	6	.	.	[4gg\	.
16A\LL	.	.	8bb\	.	.	.
16G\JJ	.	.	.	.	.	.
4.c\	.	5	4.ee\	.	8gg\L]	.
.	.	.	.	.	16ff#y\L	.
.	.	.	.	.	16ee\JJ	.
.	.	6	.	.	[4aa\	.
16B\LL	.	.	8ccc\	.	.	.
16A\JJ	.	.	.	.	.	.
=17	=17	=17	=17	=17	=17	=17
8B\L	.	7 #	16dd#X\LL	.	8aa\L]	.
.	.	.	16b\JJ	.	.	.
8A\J	.	7 5	4ee\	.	16gg\L	.
.	.	.	.	.	16ff#y\JJ	.
8G\L	.	6	.	.	8bb\L	.
16F#y\L	.	.	8ccc\	.	16aa\L	.
16E\JJ	.	.	.	.	16gg\JJ	.
8B\L	.	#	16dd#X\LL	.	8ff#y\L	.
.	.	.	16b\JJ	.	.	.
8A\	.	7 5	4ee\	.	8gg\J	.
8B\	.	5 4	.	.	4ff#y\t	.
8BB\J	.	#	8dd#X\	.	.	.
=18	=18	=18	=18	=18	=18	=18
8E\L	.	.	4ee\	.	4ee\	.
8F#y\	.	.	.	.	.	.
8G\	p	6	[4b\	p	4r	.
8E\J	.	.	.	.	.	.
8A\L	.	9	8b\L]	.	[2cc\	p
8G\	.	.	8ee\	.	.	.
8F#y\	.	5	8a\	.	.	.
8E\J	.	.	8cc\J	.	.	.
=19	=19	=19	=19	=19	=19	=19
8B\L	.	9 #	4d#X/	.	4cc\]	.
8A\	.	.	.	.	.	.
8G\	.	6	2e/T	.	8b/L	.
8F#y\J	.	.	.	.	8a/J	.
8E\L	.	.	.	.	8g/L	.
8A\	.	.	.	.	16a/L	.
.	.	.	.	.	16g/JJ	.
8B\	.	#	4d#X/	.	4f#y/t	.
8BB\J	.	.	.	.	.	.
=20	=20	=20	=20	=20	=20	=20
1E\;	.	.	1e;	.	1e;	.
==	==	==	==	==	==	==
*-	*-	*-	*-	*-	*-	*-
!!!SMS: RV 67 / Estienne Roger (No. 363), Amsterdam [facs.]
!!!ENC: Fran Bennion   rev. 05/12/21 E Correia
!!!END: 2004/09/24
!!!ONB: Converted from MuseData with musedata2hum on Sat May 11 12:01:53 2024
!!!YEM: (C) 2004, 2019 Center for Computer Assisted Research in the Humanities
!!!system-decoration: [(s1,s2,s3)]
!!!URL-info: https://wiki.ccarh.org/wiki/MuseData:_Antonio_Vivaldi#Op._1:_Suonate_da_camera_a_tr.C3.A8.2C_due_violini_e_violone_o_cembalo Information about Vivaldi Op. 1 on the CCARH wiki
!!!URL-pdf: https://pdf.musedata.org/vivaldi-op01-no02.pdf#page=1 MuseData edition
!!!URL-pdf: https://s9.imslp.org/files/imglnks/usimg/1/10/IMSLP300295-PMLP10351-Vivaldi_-_Suonate_da_Camera_a_Tre,_Opera_Prima_-Violino_Primo-.pdf#page=4 Amsterdam: Estienne Roger, n.d.(ca.1723). Plate 363.
!!!URL-pdf: https://s9.imslp.org/files/imglnks/usimg/d/d5/IMSLP280400-PMLP10351-Vivaldi_Sonatas_Op_1_-_Violino_Secondo.pdf#page=4 Violino secondo part, Amsterdam: Estienne Roger, n.d.(ca.1723). Plate 363.
!!!URL-pdf: https://s9.imslp.org/files/imglnks/usimg/8/89/IMSLP280401-PMLP10351-Vivaldi_Sonatas_Op_1_-_Organo_e_Violoncello.pdf#page=4 Organo e Violoncello parts, Amsterdam: Estienne Roger, n.d.(ca.1723). Plate 363.
!!!URL-youtube: https://www.youtube.com/watch?v=P5HHPe_W6Uo&t=4672s L'Arte dell'Arco
!!!title: @{OTL}, mov. @{OMV}
!!!filter-vcross: vcross
!!!EEV: 2024/05/11
!!!source-file: https://bitbucket.org/musedata/vivaldi/src/master/roger/op1/no02/stage2/01/01
!!!source-file: https://bitbucket.org/musedata/vivaldi/src/master/roger/op1/no02/stage2/01/02
!!!source-file: https://bitbucket.org/musedata/vivaldi/src/master/roger/op1/no02/stage2/01/03
!!!source-file: https://bitbucket.org/musedata/vivaldi/src/master/roger/op1/no02/stage2/01/04
